!!!!SEGMENT: pl-wnifc--13846--001-062_anonim--piesni-polskie-i-ruskie-ludu-galicyjskiego-62-oj-a-gdziez-ten-krzywy-jan.krn
!!!kernsource:
!!!cenid: 18xx:3284
!!!COM: Anonim
!!!COM-rismID: pe30004985
!!!CDT:
!!!CNT:
!!!GTL: Pieśni polskie i ruskie ludu galicyjskiego
!!!OTL: 62. Oj a gdzież ten krzywy Jan
!!!OMV: 062
!!!PDT: 1833
!!!AGN:
!!!SMS-siglum: PL-Wnifc
!!!SMS-shelfmark: 13846
!!!SMS-shelfwork: 001-062 G
!!!NIFC-rismSourceID: 1001036701
!!!NIFC-rismChildID: 1001037173
!!!NIFC-islandoraID: nifc:210326
!!!URL-pdf-islandora: https://repozytorium.nifc.pl/islandora/object/nifc%3A210326/datastream/PDF/view
!!!URL-scan:
!!!IIIF:
!!!ONB-nifc:
!!!AIN: 1 piano 1 vox
!!!key: G
!!!OMD: Allº Moderato.
**kern	**kern	**kern	**text
*part2	*part2	*part1	*part1
*staff3	*staff2	*staff1	*staff1
*I"FORTEPIAN.	*I"FORTEPIAN.	*I"GŁOS.	*
*Ipiano	*Ipiano	*Ivox	*
*ICklav	*ICklav	*ICvox	*
*IGacmp	*IGacmp	*IGsolo	*
*clefF4	*clefG2	*clefG2	*
*k[f#]	*k[f#]	*k[f#]	*
*G:	*G:	*G:	*
*M2/4	*M2/4	*M2/4	*
=1-	=1-	=1-	=1-
*8ba	*	*	*
!	!	!LO:TX:a:t=D.c.1.	!
4GGG/	8b\L 8g\	8b\	Oj
*X8ba	*	*	*
.	8dd\J 8b\	8dd\	a
4B\ 4G\	8dd\L 8b\	8dd\	gdzież
.	(16dd\L 16b\	(16dd\LL	ten
.	16cc#X/JJ 16a#X/)	16cc#X\JJ)	.
=2	=2	=2	=2
4DD/	8dd\L 8b\	8dd\	krzy-
.	8ee\J 8ccn\	8ee\	-wy
4A\ 4F#\ 4D\	4cc\ 4an\	4ccn\	Jan,
=3	=3	=3	=3
4DD/	8a/L 8f#/	8a/	co
.	8a/ 8f#/	8a/	cho-
4A\ 4F#\ 4D\	8cc/ 8a/	8cc\	-dził
.	8ee\J 8cc\	8ee\	z to-
!!LO:LB:g=original
=4	=4	=4	=4
4GG/	4ee\ 4cc\	4ee\	-po-
4B\ 4G\	4dd\ 4b\	4dd\	-rem,
=5	=5	=5	=5
*8ba	*	*	*
4GGG/	8b\L 8g\	8b\	ki
*X8ba	*	*	*
.	8dd\J 8b\	8dd\	jar-
4B\ 4G\	8dd\L 8b\	8dd\	-ką
.	(16dd\L 16b\	(16dd\LL	się
.	16cc#X/JJ 16a#X/)	16cc#X\JJ)	.
=6	=6	=6	=6
4DD/	(8dd\L 8b\	8dd\	o-
.	8ee\J 8ccn\)	8ee\	-pa-
4A\ 4F#\ 4D\	8.cc\L 8.an\	8.ccn\	-sy-
.	16b\Jk 16g\	16b\	-wał,
!!LO:LB:g=original
=7	=7	=7	=7
4DD/	8a/L 8f#/	8a/	pod-
.	8b/ 8g/	8b/	-pie-
4F#\ 4D\	8cc/ 8a/	8cc/	-rał
.	8a/J 8c/	8a/	się
=8	=8	=8	=8
!LO:S:s=2:note:problem=note-level slur	!	!	!
(4G/ 4GG/	(8.a/L 8.c/	(8.a/L	wo-
.	16g/Jk 16B/)	16g/Jk)	.
8G\)	8g/ 8B/	8g/	rem.
8r	8r	8r	.
==	==	==	==
*-	*-	*-	*-
!!!system-decoration: s1{(s2,s3)}
!!!ENC: Marta Lawrence
!!!END: 2021-11-10
!!!YEC: Copyright 2022 Narodowy Instytut Fryderyka Chopina (https://polishscores.org)
!!!YEM: License CC-BY-4.0 (https://creativecommons.org/licenses/by/4.0)
